white/pay.svg

<!-- Generated by IcoMoon.io -->
<svg version="1.1" xmlns="http://www.w3.org/2000/svg" width="32" height="32" viewBox="0 0 32 32">
<title>pay</title>
<path fill="#fff" d="M16 32c-8.837 0-16-7.163-16-16s7.163-16 16-16 16 7.163 16 16-7.163 16-16 16zM26.91 15.696c-0.058-0.116-0.13-0.215-0.215-0.3v0c-1.902-2.154-5.773-6.396-5.773-6.396l-4.917 5.378-4.98-5.327s-3.916 4.279-5.835 6.456c-0.25 0.246-0.25 0.69-0.026 0.952 0.997 1.136 5.894 6.536 5.894 6.536l4.94-5.414 4.906 5.419 5.917-6.546s0.125-0.13 0.152-0.217c0.058-0.18 0.016-0.376-0.063-0.541zM7.918 16.295c-0.16-0.189-0.106-0.486 0.043-0.665 0.626-0.713 3.131-3.4 3.131-3.4l3.49 3.705-3.496 3.824s-2.14-2.284-3.168-3.464zM23.906 16.421c-0.079 0.134-0.164 0.25-0.258 0.357l0.002-0.002-2.71 2.945-3.5-3.721 3.444-3.775s1.984 2.055 2.893 3.16c0.077 0.096 0.168 0.187 0.207 0.309 0.083 0.239 0.030 0.505-0.079 0.726z"></path>
</svg>

<svg xmlns="http://www.w3.org/2000/svg" width="32" height="32"><path fill="#FFF" d="M16 32C7.163 32 0 24.837 0 16S7.163 0 16 0s16 7.163 16 16-7.163 16-16 16zm10.91-16.304a1.137 1.137 0 00-.215-.3C24.793 13.242 20.922 9 20.922 9l-4.917 5.378-4.98-5.327S7.109 13.33 5.19 15.507c-.25.246-.25.69-.026.952.997 1.136 5.894 6.536 5.894 6.536l4.94-5.414L20.904 23l5.917-6.546s.125-.13.152-.217c.058-.18.016-.376-.063-.541zm-18.992.599c-.16-.189-.106-.486.043-.665.626-.713 3.131-3.4 3.131-3.4l3.49 3.705-3.496 3.824s-2.14-2.284-3.168-3.464zm15.988.126a2.267 2.267 0 01-.256.355l-2.71 2.945L17.44 16l3.444-3.775s1.984 2.055 2.893 3.16c.077.096.168.187.207.309.083.239.03.505-.079.726z"/></svg>
